X: 3657
T: Bill The Weaver's
R: slide
M: 12/8
K: Dmajor
g3|:fed B2 d A2 d F2 A|A2 F D2 F E3 E3|
fed B2 d A2 d F2 A|1 A/B/AF E2 F D3 D3:|2 A2 F E2 F D3 g3:|
fef a3 baf a3|fef a2 f g3 g2 e|
fef a3 baf a2 a|fef a/b/af d3 d2 e|
fef a2 a baf a3|fef a2 f g3 gfe|
fga efg fed B2 d|ABA F2 E D3||

